X: 41188
T: Trippy Arpeggios
R: reel
M: 4/4
K: Bminor
de|:f3B dfBd|faba fedB|1 A3B dABd|eaba fedB:|2 GBdB Acef|dBBA B2||
cd|:~e2dB GABd|~e2dB GBdB|~f2dB FABd|~f2dB gBfB|~e2dB GABd|
~e2dB GBdB|1 faba fedB|A3B dABd:|2 GBdB Acef|dBBA B2||

